assets/Broccoli/Flat/broccoli_flat.svg

<svg width="32" height="32" viewBox="0 0 32 32" fill="none" xmlns="http://www.w3.org/2000/svg">
<path d="M18.7616 21.174C18.4716 20.724 17.8716 20.604 17.4216 20.894L12.4616 24.144L14.5916 19.914C14.8316 19.434 14.6616 18.844 14.1916 18.594C13.7116 18.344 13.1216 18.534 12.8716 19.014L10.7216 23.274L10.3816 17.354C10.3516 16.824 9.89162 16.414 9.36162 16.444C8.83162 16.474 8.42162 16.934 8.45162 17.464L8.64162 20.804C8.72162 22.204 8.43163 23.614 7.80163 24.864L6.83163 26.794C6.51163 27.434 6.76163 28.224 7.41163 28.554L10.1916 29.954C10.8316 30.274 11.6216 30.024 11.9516 29.374L12.9216 27.444C13.5516 26.184 14.5016 25.124 15.6816 24.354L18.4816 22.514C18.9316 22.224 19.0616 21.624 18.7616 21.174Z" fill="#00D26A"/>
<path d="M26.3618 12.3839C27.2918 8.67393 25.5718 4.69393 22.0118 2.89393C18.4518 1.10393 14.2318 2.09394 11.8018 5.04394C9.01178 4.38394 6.02179 5.68394 4.68179 8.36394C3.10179 11.4939 4.36178 15.3039 7.49178 16.8839C8.59178 17.4339 9.77178 17.6339 10.9118 17.5339C11.0318 18.8439 11.8018 20.0539 13.0618 20.6939C14.3218 21.3239 15.7518 21.2239 16.8718 20.5439C17.4618 21.5239 18.3318 22.3539 19.4318 22.9039C22.5618 24.4839 26.3718 23.2239 27.9518 20.0939C29.2818 17.4139 28.5518 14.2339 26.3618 12.3839Z" fill="#008463"/>
</svg>

<svg xmlns="http://www.w3.org/2000/svg" width="32" height="32" fill="none"><path fill="#00D26A" d="M18.762 21.174a.967.967 0 0 0-1.34-.28l-4.96 3.25 2.13-4.23c.24-.48.07-1.07-.4-1.32a.98.98 0 0 0-1.32.42l-2.15 4.26-.34-5.92a.97.97 0 0 0-1.02-.91.97.97 0 0 0-.91 1.02l.19 3.34c.08 1.4-.21 2.81-.84 4.06l-.97 1.93c-.32.64-.07 1.43.58 1.76l2.78 1.4c.64.32 1.43.07 1.76-.58l.97-1.93a7.906 7.906 0 0 1 2.76-3.09l2.8-1.84c.45-.29.58-.89.28-1.34Z"/><path fill="#008463" d="M26.362 12.384c.93-3.71-.79-7.69-4.35-9.49a8.363 8.363 0 0 0-10.21 2.15c-2.79-.66-5.78.64-7.12 3.32a6.34 6.34 0 0 0 6.23 9.17 3.937 3.937 0 0 0 5.96 3.01c.59.98 1.46 1.81 2.56 2.36a6.34 6.34 0 0 0 8.52-2.81c1.33-2.68.6-5.86-1.59-7.71Z"/></svg>
